core/assets/icons/menu.svg

<svg xmlns="http://www.w3.org/2000/svg" width="24" height="24" fill="none"><path fill="#191C22" d="M3 7h18v2H3V7Zm0 4h18v2H3v-2Zm0 4h18v2H3v-2Z"/></svg>

<svg width="24" height="24" viewBox="0 0 24 24" xmlns="http://www.w3.org/2000/svg"><g id="menu"><path id="Vector" d="M3 7H21V9H3V7ZM3 11H21V13H3V11ZM3 15H21V17H3V15Z"/></g></svg>
